assets/icons/logo.svg

<svg width="1080" height="372" viewBox="0 0 1080 372" fill="none" xmlns="http://www.w3.org/2000/svg">
<path d="M91.23 253.05C89.8227 250.912 89.1844 248.359 89.42 245.81C89.56 242.87 91.3033 240.323 94.65 238.17C96.6772 236.866 99.0782 236.269 101.48 236.47C104.181 236.832 106.664 238.148 108.48 240.18C112.052 243.824 116.193 246.864 120.74 249.18C125.027 251.32 130.387 252.393 136.82 252.4C139.046 252.232 141.261 251.928 143.45 251.49C145.825 251.045 148.022 249.927 149.78 248.27C151.593 246.603 152.5 244.027 152.5 240.54C152.553 239.223 152.311 237.912 151.792 236.7C151.273 235.489 150.49 234.409 149.5 233.54C147.14 231.602 144.451 230.105 141.56 229.12C138.28 227.91 134.63 226.78 130.56 225.7C126.49 224.62 122.15 223.16 117.8 221.7C113.574 220.305 109.542 218.379 105.8 215.97C102.152 213.602 99.1183 210.401 96.95 206.63C94.67 202.737 93.5333 197.843 93.54 191.95C93.3655 185.776 95.3533 179.734 99.16 174.87C103.06 170.064 108.114 166.325 113.85 164C119.786 161.456 126.181 160.156 132.64 160.18C137.035 160.207 141.414 160.71 145.7 161.68C150.256 162.69 154.653 164.315 158.77 166.51C162.836 168.645 166.399 171.625 169.22 175.25C170.735 177.38 171.637 179.884 171.83 182.49C172.097 185.303 170.827 187.85 168.02 190.13C166.049 191.715 163.539 192.471 161.02 192.24C158.562 192.126 156.22 191.165 154.39 189.52C151.959 186.473 148.817 184.07 145.24 182.52C141.07 180.692 136.552 179.791 132 179.88C129.802 179.902 127.611 180.139 125.46 180.59C123.185 181.022 121.067 182.059 119.33 183.59C117.59 185.14 116.72 187.59 116.72 190.93C116.654 192.298 116.889 193.664 117.407 194.932C117.925 196.2 118.715 197.339 119.72 198.27C122.105 200.282 124.874 201.785 127.86 202.69C131.273 203.83 134.94 204.933 138.86 206C142.86 207.08 146.947 208.353 151.12 209.82C155.179 211.252 159.032 213.212 162.58 215.65C166.068 218.078 168.95 221.277 171 225C173.14 228.82 174.213 233.677 174.22 239.57C174.391 245.932 172.261 252.143 168.22 257.06C164.172 261.894 158.992 265.653 153.14 268C147.282 270.446 140.998 271.71 134.65 271.72C126.568 271.691 118.548 270.299 110.93 267.6C103.034 264.87 96.1609 259.794 91.23 253.05ZM275 160.19C276.596 160.141 278.186 160.418 279.672 161.004C281.157 161.591 282.508 162.474 283.64 163.6C284.782 164.765 285.674 166.151 286.262 167.673C286.85 169.194 287.121 170.82 287.06 172.45V257.45C287.106 259.062 286.827 260.667 286.24 262.168C285.652 263.67 284.768 265.038 283.64 266.19C281.328 268.446 278.225 269.708 274.995 269.708C271.765 269.708 268.662 268.446 266.35 266.19C265.224 265.037 264.341 263.669 263.755 262.167C263.17 260.665 262.892 259.061 262.94 257.45V247.6L267.36 249.41C267.36 251.15 266.42 253.26 264.54 255.74C262.35 258.529 259.782 261 256.91 263.08C253.424 265.637 249.601 267.7 245.55 269.21C241.022 270.912 236.218 271.763 231.38 271.72C222.49 271.822 213.762 269.345 206.25 264.59C198.664 259.736 192.523 252.932 188.47 244.89C184.11 236.517 181.93 226.9 181.93 216.04C181.93 205.06 184.11 195.393 188.47 187.04C192.473 179.036 198.521 172.233 206 167.32C213.297 162.59 221.824 160.111 230.52 160.19C235.925 160.13 241.299 161.013 246.4 162.8C250.909 164.364 255.157 166.599 259 169.43C262.143 171.71 264.921 174.455 267.24 177.57C269.18 180.323 270.15 182.637 270.15 184.51L262.92 187.12V172.45C262.874 170.838 263.152 169.232 263.737 167.729C264.323 166.226 265.205 164.856 266.33 163.7C267.451 162.543 268.801 161.633 270.294 161.029C271.787 160.424 273.39 160.139 275 160.19ZM234.39 249.63C239.878 249.751 245.273 248.21 249.87 245.21C254.344 242.197 257.921 238.03 260.22 233.15C262.754 227.814 264.027 221.967 263.94 216.06C264.039 210.091 262.766 204.179 260.22 198.78C257.921 193.9 254.344 189.733 249.87 186.72C245.273 183.72 239.878 182.179 234.39 182.3C228.971 182.199 223.647 183.74 219.12 186.72C214.643 189.73 211.066 193.898 208.77 198.78C206.2 204.173 204.91 210.087 205 216.06C204.908 221.967 206.181 227.816 208.72 233.15C211.016 238.032 214.593 242.2 219.07 245.21C223.597 248.19 228.921 249.731 234.34 249.63H234.39ZM317.15 269.73C315.544 269.778 313.946 269.489 312.458 268.883C310.97 268.277 309.625 267.366 308.51 266.21C307.382 265.058 306.498 263.69 305.91 262.188C305.322 260.687 305.044 259.082 305.09 257.47V174.47C305.046 172.857 305.325 171.251 305.913 169.748C306.5 168.245 307.384 166.875 308.51 165.72C310.825 163.469 313.926 162.21 317.155 162.21C320.384 162.21 323.485 163.469 325.8 165.72C326.923 166.877 327.804 168.248 328.389 169.75C328.975 171.253 329.254 172.858 329.21 174.47V193.36L327.81 179.89C329.235 176.748 331.167 173.863 333.53 171.35C335.853 168.892 338.529 166.792 341.47 165.12C344.431 163.446 347.612 162.193 350.92 161.4C354.211 160.607 357.584 160.204 360.97 160.2C364.652 160.087 368.253 161.297 371.12 163.61C372.374 164.539 373.398 165.743 374.112 167.13C374.826 168.517 375.212 170.05 375.24 171.61C375.24 176.043 374.1 179.227 371.82 181.16C369.784 183.01 367.141 184.049 364.39 184.08C362.002 184.113 359.635 183.632 357.45 182.67C355.202 181.695 352.77 181.214 350.32 181.26C347.783 181.302 345.285 181.896 343 183C340.361 184.256 338.03 186.076 336.17 188.33C333.966 190.976 332.271 194.007 331.17 197.27C329.82 201.317 329.174 205.565 329.26 209.83V257.47C329.305 259.081 329.026 260.684 328.44 262.185C327.855 263.687 326.974 265.055 325.85 266.21C324.728 267.374 323.373 268.289 321.874 268.895C320.375 269.502 318.766 269.786 317.15 269.73ZM468.91 160.19C470.506 160.141 472.096 160.418 473.582 161.004C475.067 161.591 476.417 162.474 477.55 163.6C478.692 164.765 479.584 166.151 480.172 167.673C480.76 169.194 481.031 170.82 480.97 172.45V257.45C481.016 259.062 480.737 260.667 480.15 262.168C479.562 263.67 478.678 265.038 477.55 266.19C475.238 268.446 472.135 269.708 468.905 269.708C465.675 269.708 462.572 268.446 460.26 266.19C459.134 265.037 458.251 263.669 457.665 262.167C457.08 260.665 456.802 259.061 456.85 257.45V247.6L461.27 249.41C461.27 251.15 460.333 253.26 458.46 255.74C456.264 258.527 453.693 260.997 450.82 263.08C447.334 265.637 443.511 267.7 439.46 269.21C434.932 270.912 430.128 271.763 425.29 271.72C416.404 271.82 407.679 269.343 400.17 264.59C392.579 259.74 386.434 252.935 382.38 244.89C378.02 236.517 375.84 226.9 375.84 216.04C375.84 205.06 378.02 195.393 382.38 187.04C386.408 179.025 392.487 172.221 400 167.32C407.3 162.589 415.831 160.109 424.53 160.19C429.935 160.131 435.308 161.014 440.41 162.8C444.906 164.367 449.14 166.602 452.97 169.43C456.113 171.71 458.891 174.455 461.21 177.57C463.15 180.323 464.12 182.637 464.12 184.51L456.89 187.12V172.45C456.844 170.838 457.122 169.232 457.707 167.729C458.293 166.226 459.175 164.856 460.3 163.7C461.414 162.551 462.754 161.645 464.237 161.041C465.719 160.437 467.31 160.147 468.91 160.19ZM428.31 249.63C433.794 249.749 439.186 248.208 443.78 245.21C448.254 242.197 451.831 238.03 454.13 233.15C456.664 227.814 457.937 221.967 457.85 216.06C457.949 210.091 456.676 204.179 454.13 198.78C451.831 193.9 448.254 189.733 443.78 186.72C439.186 183.722 433.794 182.181 428.31 182.3C422.877 182.191 417.539 183.732 413 186.72C408.526 189.733 404.949 193.9 402.65 198.78C400.128 204.185 398.879 210.097 399 216.06C398.913 221.967 400.186 227.814 402.72 233.15C405 238.021 408.551 242.187 413 245.21C417.539 248.198 422.877 249.739 428.31 249.63ZM525.18 257.47C525.215 259.09 524.923 260.7 524.319 262.203C523.716 263.707 522.814 265.073 521.668 266.218C520.523 267.364 519.157 268.266 517.653 268.869C516.15 269.473 514.54 269.766 512.92 269.73C511.345 269.765 509.781 269.47 508.327 268.864C506.874 268.257 505.563 267.353 504.48 266.21C503.352 265.058 502.468 263.69 501.88 262.188C501.292 260.687 501.014 259.082 501.06 257.47V133.25C501.026 131.63 501.32 130.02 501.925 128.517C502.53 127.014 503.432 125.649 504.579 124.505C505.725 123.36 507.092 122.459 508.596 121.857C510.1 121.255 511.71 120.963 513.33 121C514.922 120.948 516.506 121.234 517.979 121.841C519.451 122.448 520.777 123.361 521.87 124.52C524.086 126.881 525.276 130.024 525.18 133.26V257.47Z" fill="#222222"/>
<path d="M602.77 160.19C612.683 160.19 620.22 162.267 625.38 166.42C630.594 170.676 634.315 176.484 636 183C638.048 190.493 639.057 198.232 639 206V257.46C639.047 259.072 638.768 260.677 638.18 262.178C637.592 263.68 636.708 265.048 635.58 266.2C633.271 268.457 630.17 269.721 626.94 269.721C623.711 269.721 620.609 268.457 618.3 266.2C617.172 265.048 616.288 263.68 615.7 262.178C615.113 260.677 614.834 259.072 614.88 257.46V206C614.934 201.952 614.357 197.92 613.17 194.05C612.106 190.611 609.955 187.611 607.04 185.5C604.087 183.36 599.867 182.29 594.38 182.29C589.652 182.134 584.967 183.242 580.81 185.5C577.258 187.512 574.336 190.472 572.37 194.05C570.374 197.714 569.352 201.828 569.4 206V257.46C569.447 259.072 569.168 260.677 568.58 262.178C567.992 263.68 567.108 265.048 565.98 266.2C563.671 268.457 560.57 269.721 557.34 269.721C554.111 269.721 551.009 268.457 548.7 266.2C547.572 265.048 546.688 263.68 546.1 262.178C545.513 260.677 545.234 259.072 545.28 257.46V174.46C545.236 172.847 545.516 171.241 546.103 169.738C546.691 168.235 547.574 166.865 548.7 165.71C551.013 163.46 554.113 162.2 557.34 162.2C560.567 162.2 563.667 163.46 565.98 165.71C567.107 166.865 567.99 168.235 568.577 169.738C569.165 171.241 569.444 172.847 569.4 174.46V183.1L566.4 182.5C567.852 179.861 569.604 177.398 571.62 175.16C574.016 172.433 576.698 169.972 579.62 167.82C582.818 165.484 586.338 163.625 590.07 162.3C594.147 160.858 598.446 160.144 602.77 160.19ZM760.35 216.06C760.35 227.053 757.903 236.737 753.01 245.11C748.319 253.287 741.519 260.056 733.32 264.71C724.838 269.323 715.336 271.74 705.68 271.74C696.024 271.74 686.522 269.323 678.04 264.71C669.838 260.056 663.035 253.288 658.34 245.11C653.447 236.743 651 227.06 651 216.06C651 205.06 653.443 195.393 658.33 187.06C663.041 178.868 669.839 172.071 678.03 167.36C686.492 162.683 696.002 160.23 705.67 160.23C715.338 160.23 724.848 162.683 733.31 167.36C741.491 172.055 748.284 178.831 753 187C757.9 195.393 760.35 205.08 760.35 216.06ZM736.23 216.06C736.386 209.88 734.969 203.762 732.11 198.28C729.544 193.443 725.728 189.382 721.06 186.52C716.405 183.758 711.093 182.301 705.68 182.301C700.268 182.301 694.955 183.758 690.3 186.52C685.648 189.386 681.85 193.447 679.3 198.28C676.442 203.762 675.024 209.88 675.18 216.06C675.036 222.178 676.454 228.232 679.3 233.65C681.85 238.483 685.648 242.544 690.3 245.41C694.955 248.172 700.268 249.629 705.68 249.629C711.093 249.629 716.405 248.172 721.06 245.41C725.728 242.548 729.544 238.487 732.11 233.65C734.956 228.232 736.374 222.178 736.23 216.06ZM776.23 162.2C778.694 162.185 781.115 162.846 783.23 164.11C785.42 165.437 787.113 167.447 788.05 169.83L817.6 237.37L813.18 239.37L843.37 170C845.637 164.667 849.187 162.12 854.02 162.36C855.517 162.297 857.011 162.54 858.411 163.075C859.811 163.609 861.087 164.425 862.16 165.47C863.18 166.479 863.982 167.687 864.517 169.018C865.052 170.349 865.308 171.776 865.27 173.21C865.257 174.23 865.089 175.241 864.77 176.21C864.457 177.229 864.09 178.23 863.67 179.21L826.08 262.02C823.927 266.853 820.51 269.4 815.83 269.66C813.294 270.068 810.695 269.569 808.49 268.25C806.068 266.829 804.195 264.634 803.17 262.02L765.78 179.21C765.513 178.543 765.213 177.673 764.88 176.6C764.516 175.36 764.344 174.072 764.37 172.78C764.37 170.373 765.443 167.993 767.59 165.64C768.697 164.477 770.042 163.568 771.534 162.974C773.025 162.381 774.627 162.116 776.23 162.2ZM963 160.19C964.596 160.141 966.186 160.418 967.672 161.004C969.157 161.591 970.508 162.474 971.64 163.6C972.782 164.765 973.674 166.151 974.262 167.673C974.85 169.194 975.122 170.82 975.06 172.45V257.45C975.107 259.062 974.828 260.667 974.24 262.168C973.652 263.67 972.768 265.038 971.64 266.19C969.331 268.447 966.23 269.711 963 269.711C959.771 269.711 956.669 268.447 954.36 266.19C953.232 265.038 952.348 263.67 951.76 262.168C951.173 260.667 950.894 259.062 950.94 257.45V247.6L955.36 249.41C955.36 251.15 954.423 253.26 952.55 255.74C950.356 258.529 947.785 261 944.91 263.08C941.425 265.639 937.602 267.702 933.55 269.21C929.022 270.913 924.218 271.764 919.38 271.72C910.494 271.82 901.769 269.343 894.26 264.59C886.669 259.74 880.524 252.935 876.47 244.89C872.11 236.517 869.933 226.9 869.94 216.04C869.94 205.06 872.117 195.393 876.47 187.04C880.474 179.037 886.521 172.234 894 167.32C901.296 162.588 909.824 160.108 918.52 160.19C923.925 160.131 929.299 161.014 934.4 162.8C938.91 164.363 943.158 166.598 947 169.43C950.145 171.708 952.924 174.453 955.24 177.57C957.18 180.32 958.16 182.63 958.16 184.51L950.92 187.12V172.45C950.876 170.837 951.156 169.231 951.743 167.728C952.331 166.225 953.214 164.855 954.34 163.7C955.458 162.542 956.807 161.632 958.298 161.028C959.79 160.423 961.392 160.138 963 160.19ZM922.4 249.63C927.884 249.749 933.277 248.208 937.87 245.21C942.35 242.201 945.931 238.033 948.23 233.15C950.764 227.814 952.037 221.967 951.95 216.06C952.049 210.091 950.776 204.179 948.23 198.78C945.931 193.897 942.35 189.729 937.87 186.72C933.277 183.722 927.884 182.181 922.4 182.3C916.978 182.199 911.651 183.739 907.12 186.72C902.646 189.733 899.069 193.9 896.77 198.78C894.207 204.175 892.917 210.087 893 216.06C892.913 221.967 894.186 227.814 896.72 233.15C899.019 238.03 902.596 242.197 907.07 245.21C911.604 248.192 916.934 249.733 922.36 249.63H922.4Z" fill="#05C78C"/>
<path d="M1025.41 79.11C1025.17 80.3858 1024.61 81.5782 1023.77 82.5704C1022.94 83.5626 1021.86 84.3205 1020.64 84.77C1010.46 88.56 1000.21 92.21 989.99 95.91C989.862 95.9405 989.731 95.9605 989.6 95.97C989.5 96.04 989.39 96.16 989.28 96.17C986.61 96.48 985.76 98.39 984.97 100.64C981.44 110.64 977.77 120.58 974.17 130.55C973.573 132.117 972.538 133.479 971.189 134.476C969.84 135.472 968.233 136.06 966.56 136.17C964.897 136.112 963.29 135.557 961.946 134.577C960.602 133.596 959.583 132.236 959.02 130.67C956.48 123.743 953.957 116.803 951.45 109.85C950.12 106.17 948.75 102.51 947.45 98.85C947.33 98.3281 947.063 97.8517 946.68 97.4775C946.297 97.1034 945.815 96.8474 945.29 96.74C944.676 96.5382 944.077 96.2908 943.5 96C939.73 94.67 935.96 93.36 932.2 92C926.02 89.78 919.86 87.5 913.68 85.29C912.086 84.6942 910.699 83.6467 909.691 82.2757C908.682 80.9047 908.094 79.2695 908 77.57C908.079 75.91 908.648 74.3106 909.633 72.9726C910.619 71.6346 911.978 70.6178 913.54 70.05C924.207 66.1833 934.873 62.3233 945.54 58.47C945.985 58.3345 946.39 58.0897 946.717 57.7578C947.043 57.4259 947.282 57.0176 947.41 56.57C951.29 45.74 955.23 34.93 959.14 24.11C960.14 21.45 963.65 19.06 966.62 19.05C968.283 19.1155 969.887 19.6799 971.225 20.6697C972.563 21.6596 973.571 23.029 974.12 24.6C975.88 29.38 977.58 34.17 979.34 38.94C981.56 44.94 983.47 51.05 985.85 56.99C985.946 57.2938 986.113 57.5702 986.337 57.7963C986.562 58.0224 986.837 58.1917 987.14 58.29C998.06 62.23 1008.99 66.15 1019.88 70.17C1023.58 71.54 1026.34 75 1025.41 79.11Z" fill="#FFAF45"/>
</svg>

<svg data-name="Layer 1" xmlns="http://www.w3.org/2000/svg" viewBox="0 0 1080 372">
    <path d="M91.23 253.05a11.28 11.28 0 0 1-1.81-7.24q.21-4.41 5.23-7.64a10.94 10.94 0 0 1 6.83-1.7 11.42 11.42 0 0 1 7 3.71 47.12 47.12 0 0 0 12.26 9q6.43 3.21 16.08 3.22a54.69 54.69 0 0 0 6.63-.91 12.62 12.62 0 0 0 6.33-3.22q2.72-2.5 2.72-7.73a8.84 8.84 0 0 0-3-7 25.43 25.43 0 0 0-7.94-4.42c-3.28-1.21-6.93-2.34-11-3.42s-8.41-2.54-12.76-4a52.65 52.65 0 0 1-12-5.73 27.45 27.45 0 0 1-8.85-9.34q-3.42-5.84-3.41-14.68a26.5 26.5 0 0 1 5.62-17.08A36.65 36.65 0 0 1 113.85 164a47.26 47.26 0 0 1 18.79-3.82 60.9 60.9 0 0 1 13.06 1.5 51.43 51.43 0 0 1 13.07 4.83 32.23 32.23 0 0 1 10.45 8.74 14.31 14.31 0 0 1 2.61 7.24q.4 4.22-3.81 7.64a9.75 9.75 0 0 1-7 2.11 10.66 10.66 0 0 1-6.63-2.72 23.82 23.82 0 0 0-9.15-7 31.45 31.45 0 0 0-13.24-2.64 33.52 33.52 0 0 0-6.54.71 12.92 12.92 0 0 0-6.13 3c-1.74 1.55-2.61 4-2.61 7.34a9.39 9.39 0 0 0 3 7.34 22.94 22.94 0 0 0 8.14 4.42q5.12 1.71 11 3.31 6 1.62 12.26 3.82a49.05 49.05 0 0 1 11.46 5.83A27.63 27.63 0 0 1 171 225q3.21 5.73 3.22 14.57a26.43 26.43 0 0 1-6 17.49A38.23 38.23 0 0 1 153.14 268a48.19 48.19 0 0 1-18.49 3.72 71.8 71.8 0 0 1-23.72-4.12 41 41 0 0 1-19.7-14.55ZM275 160.19a11.74 11.74 0 0 1 8.64 3.41 12 12 0 0 1 3.42 8.85v85a12 12 0 0 1-3.42 8.74 12.38 12.38 0 0 1-17.29 0 12 12 0 0 1-3.41-8.74v-9.85l4.42 1.81q0 2.61-2.82 6.33a38.17 38.17 0 0 1-7.63 7.34 46.92 46.92 0 0 1-11.36 6.13 39.27 39.27 0 0 1-14.17 2.51 46 46 0 0 1-25.13-7.13 50.22 50.22 0 0 1-17.78-19.7q-6.54-12.56-6.54-28.85 0-16.47 6.54-29A50.76 50.76 0 0 1 206 167.32a44.34 44.34 0 0 1 24.52-7.13 46.49 46.49 0 0 1 15.88 2.61 47.48 47.48 0 0 1 12.6 6.63 38.34 38.34 0 0 1 8.24 8.14q2.91 4.13 2.91 6.94l-7.23 2.61v-14.67a12.05 12.05 0 0 1 3.41-8.75 11.56 11.56 0 0 1 8.67-3.51Zm-40.61 89.44a27.23 27.23 0 0 0 15.48-4.42 29.91 29.91 0 0 0 10.35-12.06 38.51 38.51 0 0 0 3.72-17.09 39 39 0 0 0-3.72-17.28 29.91 29.91 0 0 0-10.35-12.06 27.23 27.23 0 0 0-15.48-4.42 26.86 26.86 0 0 0-15.27 4.42 29.83 29.83 0 0 0-10.35 12.06 38.81 38.81 0 0 0-3.77 17.28 38.38 38.38 0 0 0 3.72 17.09 29.83 29.83 0 0 0 10.35 12.06 26.86 26.86 0 0 0 15.27 4.42Zm82.76 20.1a11.53 11.53 0 0 1-8.64-3.52 12 12 0 0 1-3.42-8.74v-83a12.06 12.06 0 0 1 3.42-8.75 12.4 12.4 0 0 1 17.29 0 12.09 12.09 0 0 1 3.41 8.75v18.89l-1.4-13.47a31.4 31.4 0 0 1 5.72-8.54 34.15 34.15 0 0 1 7.94-6.23 36.49 36.49 0 0 1 9.45-3.72 43.13 43.13 0 0 1 10.05-1.2 15.41 15.41 0 0 1 10.15 3.41 10.18 10.18 0 0 1 4.12 8q0 6.65-3.42 9.55a11.24 11.24 0 0 1-7.43 2.92 16.65 16.65 0 0 1-6.94-1.41 17.12 17.12 0 0 0-7.13-1.41A17.49 17.49 0 0 0 343 183a20 20 0 0 0-6.83 5.33 27.91 27.91 0 0 0-5 8.94 37.32 37.32 0 0 0-1.91 12.56v47.64a12.05 12.05 0 0 1-3.41 8.74 11.53 11.53 0 0 1-8.7 3.52Zm151.76-109.54a11.74 11.74 0 0 1 8.64 3.41 12 12 0 0 1 3.42 8.85v85a12 12 0 0 1-3.42 8.74 12.38 12.38 0 0 1-17.29 0 12 12 0 0 1-3.41-8.74v-9.85l4.42 1.81q0 2.61-2.81 6.33a38.52 38.52 0 0 1-7.64 7.34 46.92 46.92 0 0 1-11.36 6.13 39.27 39.27 0 0 1-14.17 2.51 46 46 0 0 1-25.12-7.13 50.17 50.17 0 0 1-17.79-19.7q-6.54-12.56-6.54-28.85 0-16.47 6.54-29A50.76 50.76 0 0 1 400 167.32a44.35 44.35 0 0 1 24.53-7.13 46.53 46.53 0 0 1 15.88 2.61 47.42 47.42 0 0 1 12.56 6.63 38.34 38.34 0 0 1 8.24 8.14q2.91 4.13 2.91 6.94l-7.23 2.61v-14.67a12.05 12.05 0 0 1 3.41-8.75 11.56 11.56 0 0 1 8.61-3.51Zm-40.6 89.44a27.22 27.22 0 0 0 15.47-4.42 29.91 29.91 0 0 0 10.35-12.06 38.51 38.51 0 0 0 3.72-17.09 39 39 0 0 0-3.72-17.28 29.91 29.91 0 0 0-10.35-12.06 27.22 27.22 0 0 0-15.47-4.42 26.87 26.87 0 0 0-15.31 4.42 29.91 29.91 0 0 0-10.35 12.06 39 39 0 0 0-3.65 17.28 38.51 38.51 0 0 0 3.72 17.09A29.91 29.91 0 0 0 413 245.21a26.87 26.87 0 0 0 15.31 4.42Zm96.87 7.84a12 12 0 0 1-12.26 12.26 11.28 11.28 0 0 1-8.44-3.52 12 12 0 0 1-3.42-8.74V133.25A12 12 0 0 1 513.33 121a11.23 11.23 0 0 1 8.54 3.52 12.24 12.24 0 0 1 3.31 8.74Z" style="fill:#252526"/>
    <path d="M602.77 160.19q14.87 0 22.61 6.23A31.62 31.62 0 0 1 636 183a84.9 84.9 0 0 1 3 23v51.46a12 12 0 0 1-3.42 8.74 12.36 12.36 0 0 1-17.28 0 12 12 0 0 1-3.42-8.74V206a39 39 0 0 0-1.71-11.95 16.62 16.62 0 0 0-6.13-8.55q-4.43-3.21-12.66-3.21a26.59 26.59 0 0 0-13.57 3.21 22 22 0 0 0-8.44 8.55A24.39 24.39 0 0 0 569.4 206v51.46a12 12 0 0 1-3.42 8.74 12.36 12.36 0 0 1-17.28 0 12 12 0 0 1-3.42-8.74v-83a12.06 12.06 0 0 1 3.42-8.75 12.39 12.39 0 0 1 17.28 0 12.06 12.06 0 0 1 3.42 8.75v8.64l-3-.6a39.17 39.17 0 0 1 5.22-7.34 50.56 50.56 0 0 1 8-7.34 40.93 40.93 0 0 1 10.45-5.52 36.9 36.9 0 0 1 12.7-2.11Zm157.58 55.87q0 16.49-7.34 29.05a52.68 52.68 0 0 1-19.69 19.6 57.85 57.85 0 0 1-55.28 0 52.71 52.71 0 0 1-19.7-19.6Q651 232.56 651 216.06t7.33-29a53.49 53.49 0 0 1 19.7-19.7 57.14 57.14 0 0 1 55.28 0A53.47 53.47 0 0 1 753 187q7.35 12.59 7.35 29.06Zm-24.12 0a36.46 36.46 0 0 0-4.12-17.78 30.64 30.64 0 0 0-11.05-11.76 30.14 30.14 0 0 0-30.76 0 30.57 30.57 0 0 0-11 11.76 36.46 36.46 0 0 0-4.12 17.78 36 36 0 0 0 4.12 17.59 30.57 30.57 0 0 0 11 11.76 30.14 30.14 0 0 0 30.76 0 30.64 30.64 0 0 0 11.05-11.76 36 36 0 0 0 4.12-17.59Zm40-53.86a13.49 13.49 0 0 1 7 1.91 11.69 11.69 0 0 1 4.82 5.72l29.55 67.54-4.42 2L843.37 170q3.4-8 10.65-7.64a11 11 0 0 1 8.14 3.11 10.5 10.5 0 0 1 3.11 7.74 10 10 0 0 1-.5 3 30.08 30.08 0 0 1-1.1 3l-37.59 82.81q-3.23 7.25-10.25 7.64a10.92 10.92 0 0 1-7.34-1.41 12.52 12.52 0 0 1-5.32-6.23l-37.39-82.81q-.4-1-.9-2.61a12.66 12.66 0 0 1-.51-3.82q0-3.61 3.22-7.14a11.13 11.13 0 0 1 8.64-3.44ZM963 160.19a11.74 11.74 0 0 1 8.64 3.41 12 12 0 0 1 3.42 8.85v85a12 12 0 0 1-3.42 8.74 12.36 12.36 0 0 1-17.28 0 12 12 0 0 1-3.42-8.74v-9.85l4.42 1.81q0 2.61-2.81 6.33a38.25 38.25 0 0 1-7.64 7.34 46.73 46.73 0 0 1-11.36 6.13 39.24 39.24 0 0 1-14.17 2.51 46 46 0 0 1-25.12-7.13 50.17 50.17 0 0 1-17.79-19.7q-6.54-12.56-6.53-28.85 0-16.47 6.53-29A50.78 50.78 0 0 1 894 167.32a44.29 44.29 0 0 1 24.52-7.13 46.53 46.53 0 0 1 15.88 2.61 47.42 47.42 0 0 1 12.6 6.63 38.11 38.11 0 0 1 8.24 8.14c1.94 2.75 2.92 5.06 2.92 6.94l-7.24 2.61v-14.67a12.06 12.06 0 0 1 3.42-8.75 11.52 11.52 0 0 1 8.66-3.51Zm-40.6 89.44a27.22 27.22 0 0 0 15.47-4.42 29.85 29.85 0 0 0 10.36-12.06 38.51 38.51 0 0 0 3.72-17.09 39 39 0 0 0-3.72-17.28 29.85 29.85 0 0 0-10.36-12.06 27.22 27.22 0 0 0-15.47-4.42 26.89 26.89 0 0 0-15.28 4.42 29.91 29.91 0 0 0-10.35 12.06 39 39 0 0 0-3.77 17.28 38.51 38.51 0 0 0 3.72 17.09 29.91 29.91 0 0 0 10.35 12.06 26.89 26.89 0 0 0 15.29 4.42Z" style="fill:#5140b2"/>
    <path d="M1025.41 79.11a7.49 7.49 0 0 1-4.77 5.66c-10.18 3.79-20.43 7.44-30.65 11.14a2.44 2.44 0 0 1-.39.06c-.1.07-.21.19-.32.2-2.67.31-3.52 2.22-4.31 4.47-3.53 10-7.2 19.94-10.8 29.91a8.76 8.76 0 0 1-7.61 5.62 8.32 8.32 0 0 1-7.54-5.5q-3.81-10.39-7.57-20.82c-1.33-3.68-2.7-7.34-4-11a2.79 2.79 0 0 0-2.16-2.11 13 13 0 0 1-1.79-.74c-3.77-1.33-7.54-2.64-11.3-4-6.18-2.22-12.34-4.5-18.52-6.71a8.76 8.76 0 0 1-5.68-7.72 8.43 8.43 0 0 1 5.54-7.52q16-5.8 32-11.58a2.79 2.79 0 0 0 1.87-1.9c3.88-10.83 7.82-21.64 11.73-32.46 1-2.66 4.51-5.05 7.48-5.06a8.29 8.29 0 0 1 7.5 5.55c1.76 4.78 3.46 9.57 5.22 14.34 2.22 6 4.13 12.11 6.51 18.05a2 2 0 0 0 1.29 1.3c10.92 3.94 21.85 7.86 32.74 11.88 3.7 1.37 6.46 4.83 5.53 8.94Z" style="fill:#ffaf45"/>
</svg>
